assets/img/arr-resol.svg

<svg width="506" height="281" viewBox="0 0 506 281" fill="none" xmlns="http://www.w3.org/2000/svg">
<path d="M505.08 9.34817C504.996 8.99832 504.891 8.65349 504.768 8.31532C503.981 6.12447 502.596 4.19791 500.77 2.75396L500.088 2.23233L499.379 1.79528C498.928 1.52618 498.459 1.28924 497.974 1.08606C497.758 0.979933 497.532 0.89341 497.299 0.827528L496.436 0.92215L494.709 1.10292L479.044 2.81364C478.619 2.89495 478.314 2.95347 477.94 3.02503L471.513 4.43966L462.954 6.30654C454.09 8.24045 445.286 10.3038 436.393 12.4547C428.376 14.394 420.287 16.4175 412.294 18.6693C404.301 20.9211 396.293 23.2728 388.382 25.7646C384.453 26.998 380.53 28.2478 376.614 29.5141C372.281 30.907 367.809 32.0799 363.721 34.2454C362.577 34.852 361.128 35.4815 360.638 37.2494C360.279 38.4036 360.016 39.5857 359.852 40.7834C359.657 41.8671 359.761 42.9833 360.153 44.0123C360.395 44.5319 360.762 44.9833 361.221 45.326C361.68 45.6687 362.217 45.8921 362.784 45.976C364.743 46.2978 366.749 46.1729 368.653 45.6108C373.794 44.4333 378.969 43.3903 384.035 41.9628C386.541 41.2454 389.028 40.426 391.523 39.6491C395.255 38.4327 398.998 37.2759 402.75 36.1174C406.503 34.9589 410.28 33.7955 414.069 32.7358C417.858 31.6761 421.594 30.6175 425.311 29.5979C434.009 27.2553 442.917 25.5069 451.802 23.4985C457.54 22.2066 463.272 20.8808 468.998 19.521L477.58 17.4472L481.862 16.3899L484.376 15.715L486.703 15.076L487.893 14.7514C488.292 14.6749 488.728 14.5123 489.027 14.4639C489.379 14.4172 489.736 14.443 490.078 14.5398C490.419 14.6367 490.737 14.8026 491.012 15.0271C491.272 15.2322 491.468 15.508 491.577 15.8216C491.685 16.1351 491.702 16.4731 491.624 16.7954C491.516 17.4327 491.366 18.1225 491.195 18.8424L490.589 21.1523L490.263 22.3512L489.772 24.0666C489.09 26.3997 488.418 28.7311 487.795 31.097C486.196 37.2448 484.812 43.4572 483.108 49.5633C481.404 55.6695 479.078 61.4276 476.997 67.3591C474.916 73.2907 473.654 79.4532 472.005 85.4784L466.958 103.819C465.328 109.911 463.833 116.036 462.474 122.194C461.117 128.366 459.7 134.496 458.868 140.788C458.662 142.29 458.456 143.792 458.236 145.315L458.034 146.56C457.987 146.869 457.731 147.367 457.852 147.679C457.973 147.991 458.311 148.102 458.776 148.322C459.737 148.737 460.793 148.544 460.953 147.905C463.877 136.896 466.272 125.741 470.185 115.018C471.184 112.271 472.254 109.573 473.124 106.799L475.726 98.4324C477.462 92.8606 479.238 87.3016 481.055 81.7554C482.906 76.1851 484.812 70.6306 486.832 65.116C487.862 62.3462 488.883 59.5779 489.977 56.8222C491.071 54.0665 492.745 50.1954 494.177 46.5378C495.914 42.0291 497.416 37.8647 498.861 33.7201C500.782 28.2862 502.694 22.898 504.734 17.1154C504.845 15.7637 504.952 14.2981 505.074 12.7682C505.129 11.9998 505.199 11.2112 505.258 10.4156C505.277 10.0511 505.217 9.68665 505.08 9.34817Z" fill="#F06400"/>
<path d="M443.581 60.9327C444.236 59.75 444.719 58.3623 443.902 57.4525C443.198 56.8323 442.284 56.5032 441.346 56.5317C440.184 56.5205 439.022 56.6159 437.877 56.8167C432.754 57.6735 427.487 59.8531 422.761 62.1847C409.683 68.6169 397.811 76.4747 386.475 84.3708C380.857 88.3006 375.323 92.3465 369.776 96.3771L319.603 132.56L294.686 150.43C275.441 164.236 255.913 177.673 236.499 191.239L189.497 224.101L184.839 227.389L182.632 228.93C182.313 229.188 181.959 229.398 181.58 229.555C180.785 229.8 179.927 229.738 179.176 229.38C178.808 229.199 178.467 228.968 178.163 228.693C177.754 228.364 177.387 227.988 177.068 227.572C176.79 227.181 176.561 226.757 176.386 226.31L176.225 225.469C176.164 225.154 176.107 224.857 176.046 224.534C175.887 223.106 175.937 221.663 176.195 220.25C176.843 217.088 177.75 213.986 178.905 210.973L182.307 201.123C184.643 194.403 186.775 187.633 188.954 180.881C193.947 165.528 199.342 150.257 204.394 134.893L211.258 113.799C211.478 113.121 211.659 112.43 211.797 111.731C211.835 111.38 211.846 111.025 211.876 110.676C211.906 110.327 211.838 109.97 211.824 109.62C211.647 108.219 211.156 106.876 210.386 105.692C209.628 104.516 208.673 103.479 207.561 102.629C207 102.209 206.407 101.833 205.787 101.506C205.495 101.337 205.191 101.191 204.876 101.072C204.568 100.927 204.251 100.805 203.925 100.708C203.279 100.486 202.616 100.318 201.943 100.206L200.919 100.102C200.59 100.086 200.266 100.095 199.947 100.086C198.667 100.119 197.394 100.295 196.152 100.609C193.794 101.248 191.535 102.208 189.438 103.462C187.603 104.509 185.864 105.644 184.157 106.763L179.008 110.11L173.843 113.415C172.115 114.513 170.422 115.656 168.705 116.769C165.293 119.016 161.823 121.187 158.439 123.491L148.3 130.365C134.858 139.686 122.181 150.06 109.557 160.431C96.7737 170.94 84.1901 181.709 72.0625 192.973C59.9348 204.236 48.3055 215.757 37.0982 227.779C34.311 230.803 31.5336 233.831 28.7655 236.863C26.0192 239.917 23.3237 243.006 20.618 246.087C19.2553 247.623 17.921 249.182 16.6145 250.765L12.6896 255.49C10.0245 258.555 7.54918 261.78 5.27697 265.147C3.18849 268.187 1.74677 271.624 1.04119 275.244C0.960009 275.716 0.913147 276.193 0.900505 276.672L0.868756 277.383C0.91104 277.604 0.904292 277.843 0.914203 278.079C0.909556 278.505 0.934562 278.93 0.989779 279.351C1.03369 279.581 1.07598 279.802 1.11501 280.006C1.16496 280.184 1.2423 280.353 1.34368 280.508C1.49337 280.673 1.67917 280.801 1.88727 280.88C2.09537 280.96 2.31972 280.989 2.54132 280.966C2.79201 280.957 3.03706 280.888 3.25567 280.765C3.47427 280.642 3.66017 280.468 3.79818 280.259C3.93986 280.067 4.03866 279.847 4.08847 279.613C4.1609 279.378 4.18568 279.13 4.16095 278.886C4.00043 276.207 4.64724 273.541 6.01841 271.234C7.63911 268.322 9.56511 265.591 11.7638 263.086C14.1136 260.355 16.6066 257.543 18.9871 254.788C21.3676 252.032 23.9029 249.256 26.3968 246.541C31.346 241.048 36.4888 235.737 41.6369 230.409C46.7851 225.08 52.1213 219.997 57.6009 215.018C63.1378 209.88 68.8494 205.007 74.4098 199.898L82.9201 192.34C85.74 189.809 88.6591 187.383 91.5244 184.905C103.061 175.067 114.812 165.47 126.925 156.342C139.038 147.213 151.514 138.227 164.241 129.818C167.427 127.683 170.683 125.633 173.908 123.562C177.133 121.491 180.392 119.458 183.666 117.457L189 114.207C190.835 113.052 192.73 111.995 194.677 111.042C196.112 110.302 197.674 109.842 199.28 109.685C199.558 109.67 199.837 109.678 200.114 109.711C200.284 109.678 200.263 109.752 200.307 109.753C200.351 109.753 200.393 109.789 200.439 109.798C200.485 109.807 200.556 109.855 200.622 109.878C200.692 109.903 200.758 109.938 200.818 109.981C200.889 110.009 200.953 110.05 201.008 110.103C201.129 110.205 201.212 110.344 201.241 110.499C201.271 110.654 201.246 110.815 201.171 110.953C200.129 113.796 199.089 116.559 198.072 119.3C196.991 122.265 195.92 125.184 194.854 128.084C192.755 133.878 190.687 139.56 188.608 145.271C184.475 156.688 180.296 168.184 175.59 180.751L167.578 202.338C166.261 206 164.906 209.281 163.593 213.744C162.887 216.149 162.427 218.619 162.219 221.117C161.973 224.092 162.269 227.086 163.091 229.955C163.614 231.702 164.387 233.365 165.384 234.892C165.859 235.616 166.377 236.311 166.936 236.974C167.497 237.612 168.092 238.218 168.72 238.791C170.133 240.068 171.72 241.138 173.434 241.969C175.148 242.777 176.975 243.319 178.852 243.575C180.721 243.822 182.62 243.73 184.457 243.305C186.285 242.83 188.025 242.063 189.608 241.033L194.892 237.378L213.825 224.337C233.423 210.836 252.897 197.183 272.248 183.377L324.699 146.026L377.204 108.393L403.212 89.6888C412.814 82.9086 422.741 76.6299 432.622 70.8449C435.389 69.1877 438.958 67.5357 440.634 65.1972C441.714 63.8463 442.699 62.4212 443.581 60.9327Z" fill="#F06400"/>
</svg>

<svg width="506" height="281" fill="none" xmlns="http://www.w3.org/2000/svg"><path d="M505.08 9.348a9.54 9.54 0 0 0-.312-1.033 12.46 12.46 0 0 0-3.998-5.561l-.682-.522-.709-.437c-.451-.269-.92-.506-1.405-.709a3.997 3.997 0 0 0-.675-.258l-.863.094-1.727.18-15.665 1.712-1.104.211-6.427 1.415-8.559 1.867c-8.864 1.933-17.668 3.997-26.561 6.148-8.017 1.939-16.106 3.963-24.099 6.214-7.993 2.252-16.001 4.604-23.912 7.096a1440.716 1440.716 0 0 0-11.768 3.75c-4.333 1.392-8.805 2.565-12.893 4.73-1.144.607-2.593 1.236-3.083 3.004a21.905 21.905 0 0 0-.786 3.534 6.057 6.057 0 0 0 .301 3.23 3.465 3.465 0 0 0 2.631 1.963 13.18 13.18 0 0 0 5.869-.365c5.141-1.178 10.316-2.22 15.382-3.648 2.506-.718 4.993-1.537 7.488-2.314 3.732-1.216 7.475-2.373 11.227-3.532 3.753-1.158 7.53-2.322 11.319-3.381 3.789-1.06 7.525-2.118 11.242-3.138 8.698-2.343 17.606-4.091 26.491-6.1 5.738-1.291 11.47-2.617 17.196-3.977l8.582-2.074 4.282-1.057 2.514-.675 2.327-.639 1.19-.325c.399-.076.835-.239 1.134-.287a2.6 2.6 0 0 1 1.985.563 1.739 1.739 0 0 1 .612 1.768 32.578 32.578 0 0 1-.429 2.047l-.606 2.31-.326 1.2-.491 1.715a270.708 270.708 0 0 0-1.977 7.03c-1.599 6.148-2.983 12.36-4.687 18.466-1.704 6.106-4.03 11.865-6.111 17.796-2.081 5.932-3.343 12.094-4.992 18.12l-5.047 18.34a427.589 427.589 0 0 0-4.484 18.375c-1.357 6.172-2.774 12.302-3.606 18.594-.206 1.502-.412 3.004-.632 4.527l-.202 1.245c-.047.309-.303.807-.182 1.119.121.312.459.423.924.643.961.415 2.017.222 2.177-.417 2.924-11.009 5.319-22.164 9.232-32.887.999-2.747 2.069-5.445 2.939-8.219l2.602-8.367c1.736-5.571 3.512-11.13 5.329-16.677 1.851-5.57 3.757-11.124 5.777-16.639 1.03-2.77 2.051-5.538 3.145-8.294 1.094-2.756 2.768-6.627 4.2-10.284a415.602 415.602 0 0 0 4.684-12.818c1.921-5.434 3.833-10.822 5.873-16.605.111-1.351.218-2.817.34-4.347.055-.768.125-1.557.184-2.352a2.498 2.498 0 0 0-.178-1.068Z" fill="#F06400"/><path d="M443.581 60.933c.655-1.183 1.138-2.57.321-3.48a3.697 3.697 0 0 0-2.556-.921 19.028 19.028 0 0 0-3.469.285c-5.123.856-10.39 3.036-15.116 5.368-13.078 6.432-24.95 14.29-36.286 22.186-5.618 3.93-11.152 7.976-16.699 12.006l-50.173 36.183-24.917 17.87c-19.245 13.806-38.773 27.243-58.187 40.809l-47.002 32.862-4.658 3.288-2.207 1.541a4.27 4.27 0 0 1-1.052.625 3.316 3.316 0 0 1-2.404-.175 4.413 4.413 0 0 1-1.013-.687 6.563 6.563 0 0 1-1.095-1.121 5.873 5.873 0 0 1-.682-1.262l-.161-.841-.179-.935a14.757 14.757 0 0 1 .149-4.284 59.019 59.019 0 0 1 2.71-9.277l3.402-9.85c2.336-6.72 4.468-13.49 6.647-20.242 4.993-15.353 10.388-30.624 15.44-45.988l6.864-21.094c.22-.678.401-1.369.539-2.068.038-.351.049-.706.079-1.055s-.038-.706-.052-1.056a9.355 9.355 0 0 0-1.438-3.928 12.117 12.117 0 0 0-2.825-3.063 13.362 13.362 0 0 0-1.774-1.123 6.178 6.178 0 0 0-.911-.434 6.752 6.752 0 0 0-.951-.364 12.324 12.324 0 0 0-1.982-.502l-1.024-.104c-.329-.016-.653-.007-.972-.016-1.28.033-2.553.209-3.795.523a26.677 26.677 0 0 0-6.714 2.853c-1.835 1.047-3.574 2.182-5.281 3.301l-5.149 3.347-5.165 3.305c-1.728 1.098-3.421 2.241-5.138 3.354-3.412 2.247-6.882 4.418-10.266 6.722l-10.139 6.874c-13.442 9.321-26.119 19.695-38.743 30.066-12.783 10.509-25.367 21.278-37.495 32.542-12.127 11.263-23.756 22.784-34.964 34.806a2599.75 2599.75 0 0 0-8.332 9.084c-2.747 3.054-5.442 6.143-8.148 9.224a172.517 172.517 0 0 0-4.003 4.678l-3.925 4.725a99.784 99.784 0 0 0-7.413 9.657 26.93 26.93 0 0 0-4.236 10.097 9.975 9.975 0 0 0-.14 1.428l-.032.711c.042.221.035.46.045.696-.004.426.02.851.076 1.272l.125.655c.05.178.127.347.229.502a1.41 1.41 0 0 0 1.197.458 1.572 1.572 0 0 0 1.257-.707c.142-.192.24-.412.29-.646.073-.235.098-.483.073-.727a13.408 13.408 0 0 1 1.857-7.652 47.003 47.003 0 0 1 5.746-8.148c2.35-2.731 4.843-5.543 7.223-8.298 2.38-2.756 4.916-5.532 7.41-8.247 4.949-5.493 10.092-10.804 15.24-16.132 5.148-5.329 10.484-10.412 15.964-15.391 5.537-5.138 11.248-10.011 16.809-15.12l8.51-7.558c2.82-2.531 5.74-4.957 8.604-7.435 11.537-9.838 23.288-19.435 35.401-28.563 12.113-9.129 24.589-18.115 37.316-26.524 3.186-2.135 6.442-4.185 9.667-6.256a517.562 517.562 0 0 1 9.758-6.105l5.334-3.25a61.011 61.011 0 0 1 5.677-3.165c1.435-.74 2.997-1.2 4.603-1.357.278-.015.557-.007.834.026.17-.033.149.041.193.042.044 0 .086.036.132.045.046.009.117.057.183.08.07.025.136.06.196.103a.578.578 0 0 1 .19.122.683.683 0 0 1 .163.85c-1.042 2.843-2.082 5.606-3.099 8.347a3525.229 3525.229 0 0 1-3.218 8.784c-2.099 5.794-4.167 11.476-6.246 17.187-4.133 11.417-8.312 22.913-13.018 35.48l-8.012 21.587c-1.317 3.662-2.672 6.943-3.985 11.406a37.105 37.105 0 0 0-1.374 7.373c-.246 2.975.05 5.969.872 8.838a19 19 0 0 0 2.293 4.937c.475.724.993 1.419 1.552 2.082a23.172 23.172 0 0 0 1.784 1.817c1.413 1.277 3 2.347 4.714 3.178a18.602 18.602 0 0 0 5.418 1.606c1.869.247 3.768.155 5.605-.27a17.528 17.528 0 0 0 5.151-2.272l5.284-3.655 18.933-13.041a4334.314 4334.314 0 0 0 58.423-40.96l52.451-37.351 52.505-37.633 26.008-18.704c9.602-6.78 19.529-13.06 29.41-18.844 2.767-1.657 6.336-3.31 8.012-5.648a37.193 37.193 0 0 0 2.947-4.264Z" fill="#F06400"/></svg>
